Yaru++/actions/16/format-font-size-more.svg

<svg viewBox="0 0 24 24" xmlns="http://www.w3.org/2000/svg"><path d="m9.2167969 4-5.2167969 14h1.6875l1.6679688-4.429688h5.5625002l.148437.429688h1.666016l-3.521484-10zm1.0156251 1.6113281 2.128906 6.6738279h-4.4882811zm6.267578 8.1816409-.207031.207031-3.292969 3.292969.707031.707031 2.292969-2.292969v4.292969h1v-4.292969l2.292969 2.292969.707031-.707031-3.292969-3.292969z" fill="#808080"/></svg>

<svg xmlns="http://www.w3.org/2000/svg" viewBox="0 0 24 24">
 <defs>
  <style id="current-color-scheme" type="text/css">
   .ColorScheme-Text { color:#808080; }
  </style>
 </defs>
 <path style="fill:currentColor" class="ColorScheme-Text" d="M 9.2167969 4 L 4 18 L 5.6875 18 L 7.3554688 13.570312 L 12.917969 13.570312 L 13.066406 14 L 14.732422 14 L 11.210938 4 L 9.2167969 4 z M 10.232422 5.6113281 L 12.361328 12.285156 L 7.8730469 12.285156 L 10.232422 5.6113281 z M 16.5 13.792969 L 16.292969 14 L 13 17.292969 L 13.707031 18 L 16 15.707031 L 16 20 L 17 20 L 17 15.707031 L 19.292969 18 L 20 17.292969 L 16.707031 14 L 16.5 13.792969 z"/>
</svg>
